src/modules/70-pipeline/components/Dashboards/CardRailView/EmptyFailedBuilds.svg

<svg fill="none" height="66" viewBox="0 0 66 66" width="66" xmlns="http://www.w3.org/2000/svg"><path d="m61.5 0h-57c-1.19347 0-2.33807.474106-3.18198 1.31802-.843914.84391-1.31802 1.98851-1.31802 3.18198v57c0 1.1935.474106 2.3381 1.31802 3.182.84391.8439 1.98851 1.318 3.18198 1.318h57c1.1935 0 2.3381-.4741 3.182-1.318s1.318-1.9885 1.318-3.182v-57c0-1.19347-.4741-2.33807-1.318-3.18198-.8439-.843914-1.9885-1.31802-3.182-1.31802zm-58.5 4.5c0-.39782.15804-.77936.43934-1.06066s.66284-.43934 1.06066-.43934h57c.3978 0 .7794.15804 1.0607.43934s.4393.66284.4393 1.06066v7.5h-60zm60 57c0 .3978-.158.7794-.4393 1.0607s-.6629.4393-1.0607.4393h-57c-.39782 0-.77936-.158-1.06066-.4393s-.43934-.6629-.43934-1.0607v-46.5h60zm-51-54c0 .59334-.1759 1.17336-.5056 1.66671-.3296.49335-.7982.87789-1.3463 1.10489-.54823.2271-1.15143.2865-1.73337.1708-.58194-.1158-1.11649-.4015-1.53605-.82108-.41956-.41956-.70528-.95411-.82104-1.53605-.11575-.58194-.05634-1.18514.17072-1.73332s.61158-1.01671 1.10493-1.34636c.49335-.32964 1.07337-.50559 1.66671-.50559.79565 0 1.5587.31607 2.1213.87868s.8787 1.32567.8787 2.12132zm9 0c0 .59334-.1759 1.17336-.5056 1.66671-.3296.49335-.7982.87789-1.3463 1.10489-.5482.2271-1.1514.2865-1.7334.1708-.5819-.1158-1.1165-.4015-1.536-.82108-.4196-.41956-.7053-.95411-.8211-1.53605-.1157-.58194-.0563-1.18514.1708-1.73332.227-.54818.6115-1.01671 1.1049-1.34636.4933-.32964 1.0734-.50559 1.6667-.50559.7956 0 1.5587.31607 2.1213.87868s.8787 1.32567.8787 2.12132zm9 0c0 .59334-.1759 1.17336-.5056 1.66671-.3296.49335-.7982.87789-1.3463 1.10489-.5482.2271-1.1514.2865-1.7334.1708-.5819-.1158-1.1165-.4015-1.536-.82108-.4196-.41956-.7053-.95411-.8211-1.53605-.1157-.58194-.0563-1.18514.1708-1.73332.227-.54818.6115-1.01671 1.1049-1.34636.4933-.32964 1.0734-.50559 1.6667-.50559.7956 0 1.5587.31607 2.1213.87868s.8787 1.32567.8787 2.12132zm3 37.5c2.67 0 5.2801-.7918 7.5002-2.2752s3.9504-3.5918 4.9722-6.0586 1.2891-5.1812.7682-7.7999c-.5209-2.6188-1.8067-5.0242-3.6947-6.9122s-4.2934-3.1738-6.9122-3.6947c-2.6187-.5209-5.3331-.2536-7.7999.7682s-4.5752 2.7521-6.0586 4.9722-2.2752 4.8302-2.2752 7.5002c0 3.5804 1.4223 7.0142 3.9541 9.5459 2.5317 2.5318 5.9655 3.9541 9.5459 3.9541zm0-24c2.0767 0 4.1068.6158 5.8335 1.7696 1.7267 1.1537 3.0725 2.7936 3.8672 4.7122.7948 1.9186 1.0027 4.0298.5975 6.0667-.4051 2.0368-1.4051 3.9077-2.8736 5.3761-1.4684 1.4685-3.3393 2.4685-5.3761 2.8736-2.0368.4052-4.1481.1973-6.0667-.5975-1.9186-.7947-3.5585-2.1405-4.7122-3.8672-1.1538-1.7267-1.7696-3.7568-1.7696-5.8335 0-2.7848 1.1062-5.4555 3.0754-7.4246 1.9691-1.9692 4.6398-3.0754 7.4246-3.0754zm9 27c.3978 0 .7794.158 1.0607.4393s.4393.6629.4393 1.0607-.158.7794-.4393 1.0607-.6629.4393-1.0607.4393h-18c-.3978 0-.7794-.158-1.0607-.4393s-.4393-.6629-.4393-1.0607.158-.7794.4393-1.0607.6629-.4393 1.0607-.4393zm1.5 10.5c0 .3978-.158.7794-.4393 1.0607s-.6629.4393-1.0607.4393h-18c-.3978 0-.7794-.158-1.0607-.4393s-.4393-.6629-.4393-1.0607.158-.7794.4393-1.0607.6629-.4393 1.0607-.4393h18c.3978 0 .7794.158 1.0607.4393s.4393.6629.4393 1.0607zm-25.5-4.5c0-.3978.158-.7794.4393-1.0607s.6629-.4393 1.0607-.4393h27c.3978 0 .7794.158 1.0607.4393s.4393.6629.4393 1.0607-.158.7794-.4393 1.0607-.6629.4393-1.0607.4393h-27c-.3978 0-.7794-.158-1.0607-.4393s-.4393-.6629-.4393-1.0607zm9.69-19.32 3.195-3.18-3.195-3.18c-.2825-.2825-.4411-.6655-.4411-1.065s.1586-.7825.4411-1.065.6655-.4411 1.065-.4411.7825.1586 1.065.4411l3.18 3.195 3.18-3.195c.2825-.2825.6655-.4411 1.065-.4411s.7825.1586 1.065.4411.4411.6655.4411 1.065-.1586.7825-.4411 1.065l-3.195 3.18 3.195 3.18c.1406.1394.2522.3053.3283.4881.0762.1828.1154.3789.1154.5769s-.0392.3941-.1154.5769c-.0761.1828-.1877.3487-.3283.4881-.1402.139-.3064.249-.4891.3237-.1828.0746-.3785.1124-.5759.1113-.1974.0011-.3931-.0367-.5759-.1113-.1827-.0747-.3489-.1847-.4891-.3237l-3.18-3.195-3.18 3.195c-.1402.139-.3064.249-.4891.3237-.1828.0746-.3785.1124-.5759.1113-.1974.0011-.3931-.0367-.5759-.1113-.1827-.0747-.3489-.1847-.4891-.3237-.1406-.1394-.2522-.3053-.3283-.4881-.0762-.1828-.1154-.3789-.1154-.5769s.0392-.3941.1154-.5769c.0761-.1828.1877-.3487.3283-.4881z" fill="#d9dae6"/></svg>

<svg width="66" height="66" viewBox="0 0 66 66" fill="none" xmlns="http://www.w3.org/2000/svg">
  <path d="M61.5 0H4.5C3.30653 0 2.16193 0.474106 1.31802 1.31802C0.474106 2.16193 0 3.30653 0 4.5V61.5C0 62.6935 0.474106 63.8381 1.31802 64.682C2.16193 65.5259 3.30653 66 4.5 66H61.5C62.6935 66 63.8381 65.5259 64.682 64.682C65.5259 63.8381 66 62.6935 66 61.5V4.5C66 3.30653 65.5259 2.16193 64.682 1.31802C63.8381 0.474106 62.6935 0 61.5 0ZM3 4.5C3 4.10218 3.15804 3.72064 3.43934 3.43934C3.72064 3.15804 4.10218 3 4.5 3H61.5C61.8978 3 62.2794 3.15804 62.5607 3.43934C62.842 3.72064 63 4.10218 63 4.5V12H3V4.5ZM63 61.5C63 61.8978 62.842 62.2794 62.5607 62.5607C62.2794 62.842 61.8978 63 61.5 63H4.5C4.10218 63 3.72064 62.842 3.43934 62.5607C3.15804 62.2794 3 61.8978 3 61.5V15H63V61.5ZM12 7.5C12 8.09334 11.8241 8.67336 11.4944 9.16671C11.1648 9.66006 10.6962 10.0446 10.1481 10.2716C9.59987 10.4987 8.99667 10.5581 8.41473 10.4424C7.83279 10.3266 7.29824 10.0409 6.87868 9.62132C6.45912 9.20176 6.1734 8.66721 6.05764 8.08527C5.94189 7.50333 6.0013 6.90013 6.22836 6.35195C6.45542 5.80377 6.83994 5.33524 7.33329 5.00559C7.82664 4.67595 8.40666 4.5 9 4.5C9.79565 4.5 10.5587 4.81607 11.1213 5.37868C11.6839 5.94129 12 6.70435 12 7.5ZM21 7.5C21 8.09334 20.8241 8.67336 20.4944 9.16671C20.1648 9.66006 19.6962 10.0446 19.1481 10.2716C18.5999 10.4987 17.9967 10.5581 17.4147 10.4424C16.8328 10.3266 16.2982 10.0409 15.8787 9.62132C15.4591 9.20176 15.1734 8.66721 15.0576 8.08527C14.9419 7.50333 15.0013 6.90013 15.2284 6.35195C15.4554 5.80377 15.8399 5.33524 16.3333 5.00559C16.8266 4.67595 17.4067 4.5 18 4.5C18.7956 4.5 19.5587 4.81607 20.1213 5.37868C20.6839 5.94129 21 6.70435 21 7.5ZM30 7.5C30 8.09334 29.8241 8.67336 29.4944 9.16671C29.1648 9.66006 28.6962 10.0446 28.1481 10.2716C27.5999 10.4987 26.9967 10.5581 26.4147 10.4424C25.8328 10.3266 25.2982 10.0409 24.8787 9.62132C24.4591 9.20176 24.1734 8.66721 24.0576 8.08527C23.9419 7.50333 24.0013 6.90013 24.2284 6.35195C24.4554 5.80377 24.8399 5.33524 25.3333 5.00559C25.8266 4.67595 26.4067 4.5 27 4.5C27.7956 4.5 28.5587 4.81607 29.1213 5.37868C29.6839 5.94129 30 6.70435 30 7.5ZM33 45C35.67 45 38.2801 44.2082 40.5002 42.7248C42.7203 41.2414 44.4506 39.133 45.4724 36.6662C46.4942 34.1994 46.7615 31.485 46.2406 28.8663C45.7197 26.2475 44.4339 23.8421 42.5459 21.9541C40.6579 20.0661 38.2525 18.7803 35.6337 18.2594C33.015 17.7385 30.3006 18.0058 27.8338 19.0276C25.367 20.0494 23.2586 21.7797 21.7752 23.9998C20.2918 26.2199 19.5 28.83 19.5 31.5C19.5 35.0804 20.9223 38.5142 23.4541 41.0459C25.9858 43.5777 29.4196 45 33 45ZM33 21C35.0767 21 37.1068 21.6158 38.8335 22.7696C40.5602 23.9233 41.906 25.5632 42.7007 27.4818C43.4955 29.4004 43.7034 31.5116 43.2982 33.5485C42.8931 35.5853 41.8931 37.4562 40.4246 38.9246C38.9562 40.3931 37.0853 41.3931 35.0485 41.7982C33.0117 42.2034 30.9004 41.9955 28.9818 41.2007C27.0632 40.406 25.4233 39.0602 24.2696 37.3335C23.1158 35.6068 22.5 33.5767 22.5 31.5C22.5 28.7152 23.6062 26.0445 25.5754 24.0754C27.5445 22.1062 30.2152 21 33 21ZM42 48C42.3978 48 42.7794 48.158 43.0607 48.4393C43.342 48.7206 43.5 49.1022 43.5 49.5C43.5 49.8978 43.342 50.2794 43.0607 50.5607C42.7794 50.842 42.3978 51 42 51H24C23.6022 51 23.2206 50.842 22.9393 50.5607C22.658 50.2794 22.5 49.8978 22.5 49.5C22.5 49.1022 22.658 48.7206 22.9393 48.4393C23.2206 48.158 23.6022 48 24 48H42ZM43.5 58.5C43.5 58.8978 43.342 59.2794 43.0607 59.5607C42.7794 59.842 42.3978 60 42 60H24C23.6022 60 23.2206 59.842 22.9393 59.5607C22.658 59.2794 22.5 58.8978 22.5 58.5C22.5 58.1022 22.658 57.7206 22.9393 57.4393C23.2206 57.158 23.6022 57 24 57H42C42.3978 57 42.7794 57.158 43.0607 57.4393C43.342 57.7206 43.5 58.1022 43.5 58.5ZM18 54C18 53.6022 18.158 53.2206 18.4393 52.9393C18.7206 52.658 19.1022 52.5 19.5 52.5H46.5C46.8978 52.5 47.2794 52.658 47.5607 52.9393C47.842 53.2206 48 53.6022 48 54C48 54.3978 47.842 54.7794 47.5607 55.0607C47.2794 55.342 46.8978 55.5 46.5 55.5H19.5C19.1022 55.5 18.7206 55.342 18.4393 55.0607C18.158 54.7794 18 54.3978 18 54ZM27.69 34.68L30.885 31.5L27.69 28.32C27.4075 28.0375 27.2489 27.6545 27.2489 27.255C27.2489 26.8555 27.4075 26.4725 27.69 26.19C27.9725 25.9075 28.3555 25.7489 28.755 25.7489C29.1545 25.7489 29.5375 25.9075 29.82 26.19L33 29.385L36.18 26.19C36.4625 25.9075 36.8455 25.7489 37.245 25.7489C37.6445 25.7489 38.0275 25.9075 38.31 26.19C38.5925 26.4725 38.7511 26.8555 38.7511 27.255C38.7511 27.6545 38.5925 28.0375 38.31 28.32L35.115 31.5L38.31 34.68C38.4506 34.8194 38.5622 34.9853 38.6383 35.1681C38.7145 35.3509 38.7537 35.547 38.7537 35.745C38.7537 35.943 38.7145 36.1391 38.6383 36.3219C38.5622 36.5047 38.4506 36.6706 38.31 36.81C38.1698 36.949 38.0036 37.059 37.8209 37.1337C37.6381 37.2083 37.4424 37.2461 37.245 37.245C37.0476 37.2461 36.8519 37.2083 36.6691 37.1337C36.4864 37.059 36.3202 36.949 36.18 36.81L33 33.615L29.82 36.81C29.6798 36.949 29.5136 37.059 29.3309 37.1337C29.1481 37.2083 28.9524 37.2461 28.755 37.245C28.5576 37.2461 28.3619 37.2083 28.1791 37.1337C27.9964 37.059 27.8302 36.949 27.69 36.81C27.5494 36.6706 27.4378 36.5047 27.3617 36.3219C27.2855 36.1391 27.2463 35.943 27.2463 35.745C27.2463 35.547 27.2855 35.3509 27.3617 35.1681C27.4378 34.9853 27.5494 34.8194 27.69 34.68Z" fill="#D9DAE6"/>
</svg>
